src/assets/icons/favorite-active.svg

<svg widh="100%" height="100%" viewBox="0 0 24 24" fill="current"
  xmlns="http://www.w3.org/2000/svg">
  <path d="M12.7402 3.98441V3.98442L12.7432 3.98137C13.0048 3.71524 13.4313 3.71044 13.705 3.978C13.868 4.14195 13.938 4.37392 13.8917 4.60794C13.8916 4.60845 13.8915 4.60896 13.8914 4.60946L13.14 8.2318L13.0152 8.83335H13.6296H18.1025C19.4443 8.83335 20.3526 10.2072 19.8276 11.4464C19.8274 11.4467 19.8273 11.4469 19.8272 11.4472L17.2487 17.4663C17.2485 17.4669 17.2482 17.4675 17.248 17.4681C17.0725 17.8666 16.6805 18.125 16.25 18.125H9.125C8.53031 18.125 8.04166 17.6364 8.04166 17.0417V9.13294C8.04166 8.84426 8.15643 8.56819 8.35438 8.37024L12.7402 3.98441ZM5.45833 17.0417C5.45833 17.6364 4.96969 18.125 4.375 18.125C3.78031 18.125 3.29166 17.6364 3.29166 17.0417V10.7083C3.29166 10.1136 3.78031 9.62502 4.375 9.62502C4.96969 9.62502 5.45833 10.1136 5.45833 10.7083V17.0417Z"/>
  <path fill-rule="evenodd" clip-rule="evenodd" d="M12.9049 5.05714L8.97309 8.98896C8.94128 9.02078 8.91666 9.07343 8.91666 9.13294V17.0417C8.91666 17.1531 9.01351 17.25 9.125 17.25H16.25C16.3262 17.25 16.406 17.2038 16.445 17.1203L19.0211 11.1069C19.0224 11.1039 19.0236 11.1009 19.0249 11.0979C19.3 10.435 18.8124 9.70835 18.1025 9.70835H13.0152C12.752 9.70835 12.5027 9.58984 12.3365 9.38566C12.1704 9.18149 12.105 8.91336 12.1584 8.6556L12.2832 8.05408L12.9049 5.05714ZM14.0903 7.95835H18.1025C20.0737 7.95835 21.4016 9.97412 20.6333 11.7878C20.6316 11.7918 20.6298 11.7958 20.6281 11.7998L18.0565 17.8026C18.054 17.8086 18.0514 17.8148 18.0488 17.8208C17.7359 18.5312 17.0334 19 16.25 19H9.125C8.0471 19 7.16666 18.1197 7.16666 17.0417V9.13294C7.16666 8.6151 7.37157 8.11561 7.73566 7.75152L12.1192 3.36799C12.1192 3.36794 12.1191 3.36803 12.1192 3.36799C12.7236 2.75347 13.703 2.75242 14.3167 3.3523L14.3256 3.36102C14.6975 3.73508 14.8517 4.26329 14.7502 4.77727C14.7501 4.77734 14.7502 4.7772 14.7502 4.77727C14.75 4.77822 14.7497 4.77977 14.7494 4.78106L14.7482 4.78719L14.0903 7.95835ZM4.375 10.5C4.26351 10.5 4.16666 10.5969 4.16666 10.7083V17.0417C4.16666 17.1531 4.26351 17.25 4.375 17.25C4.48647 17.25 4.58333 17.1531 4.58333 17.0417V10.7083C4.58333 10.5969 4.48647 10.5 4.375 10.5ZM2.41666 10.7083C2.41666 9.63032 3.2971 8.75002 4.375 8.75002C5.4529 8.75002 6.33333 9.63033 6.33333 10.7083V17.0417C6.33333 18.1197 5.4529 19 4.375 19C3.2971 19 2.41666 18.1197 2.41666 17.0417V10.7083Z"/>
</svg>

<svg xmlns="http://www.w3.org/2000/svg" fill="currentColor" viewBox="0 0 24 24">
  <path d="m12.74 3.984.003-.003a.678.678 0 0 1 .962-.003.694.694 0 0 1 .186.631l-.751 3.623-.125.601H18.102c1.342 0 2.25 1.374 1.726 2.613v.001l-2.58 6.02v.001a1.095 1.095 0 0 1-.998.657H9.125a1.088 1.088 0 0 1-1.083-1.083v-7.91c0-.288.114-.564.312-.762l4.386-4.386ZM5.458 17.042c0 .594-.488 1.083-1.083 1.083a1.088 1.088 0 0 1-1.083-1.083v-6.334c0-.594.488-1.083 1.083-1.083s1.083.489 1.083 1.083v6.334Z"/>
  <path fill-rule="evenodd" d="M12.905 5.057 8.973 8.99a.207.207 0 0 0-.056.144v7.909c0 .111.097.208.208.208h7.125a.22.22 0 0 0 .195-.13l2.576-6.013.004-.01a1.004 1.004 0 0 0-.922-1.389h-5.088a.875.875 0 0 1-.857-1.052l.125-.602.622-2.997Zm1.185 2.901h4.012c1.972 0 3.3 2.016 2.531 3.83l-.005.012-2.572 6.003A1.97 1.97 0 0 1 16.25 19H9.125a1.963 1.963 0 0 1-1.958-1.958v-7.91c0-.517.205-1.016.569-1.38l4.383-4.384a1.553 1.553 0 0 1 2.198-.016l.009.009c.371.374.526.902.424 1.416v.004l-.002.006-.658 3.171ZM4.375 10.5a.213.213 0 0 0-.208.208v6.334c0 .111.097.208.208.208a.213.213 0 0 0 .208-.208v-6.334a.213.213 0 0 0-.208-.208Zm-1.958.208c0-1.078.88-1.958 1.958-1.958 1.078 0 1.958.88 1.958 1.958v6.334c0 1.078-.88 1.958-1.958 1.958a1.963 1.963 0 0 1-1.958-1.958v-6.334Z" clip-rule="evenodd"/>
</svg>
